theme/dist/icons/star.svg

<svg clip-rule="evenodd" fill-rule="evenodd" stroke-linejoin="round" stroke-miterlimit="1.41421" viewBox="0 0 511 511" xmlns="http://www.w3.org/2000/svg"><path d="m114.373 500.667c-5.599 0-11.158-1.746-15.903-5.177-8.838-6.406-12.967-17.416-10.562-28.04l32.874-144.81-111.487-97.772c-8.196-7.154-11.326-18.484-7.962-28.851 3.365-10.347 12.519-17.673 23.358-18.675l147.512-13.392 58.321-136.482c4.3-10.028 14.093-16.504 24.975-16.504 10.881 0 20.675 6.476 24.975 16.48l58.321 136.506 147.489 13.392c10.861.979 20.016 8.328 23.38 18.675 3.365 10.347.254 21.697-7.942 28.851l-111.487 97.752 32.874 144.807c2.409 10.647-1.724 21.657-10.558 28.043-8.815 6.386-20.57 6.878-29.853 1.298l-127.199-76.013-127.2 76.056c-4.3 2.554-9.092 3.856-13.926 3.856zm141.126-112.657c4.834 0 9.622 1.298 13.926 3.852l120.046 71.798-31.027-136.677c-2.214-9.727 1.088-19.883 8.605-26.464l105.269-92.322-139.274-12.648c-10.027-.916-18.651-7.22-22.569-16.46l-54.976-128.798-55.042 128.817c-3.876 9.178-12.5 15.482-22.504 16.398l-139.293 12.648 105.265 92.322c7.54 6.6 10.839 16.737 8.605 26.488l-31.003 136.673 120.046-71.775c4.3-2.554 9.091-3.852 13.926-3.852zm-84.423-221.42s0 .023-.024.043zm168.803-.063.023.043c0-.023 0-.023-.023-.043z" fill="#8c8c8c" fill-rule="nonzero"/></svg>

<?xml version="1.0" encoding="UTF-8" standalone="no"?>
<!DOCTYPE svg PUBLIC "-//W3C//DTD SVG 1.1//EN" "http://www.w3.org/Graphics/SVG/1.1/DTD/svg11.dtd">
<svg width="100%" height="100%" viewBox="0 0 511 511" version="1.1" xmlns="http://www.w3.org/2000/svg" xmlns:xlink="http://www.w3.org/1999/xlink" xml:space="preserve" xmlns:serif="http://www.serif.com/" style="fill-rule:evenodd;clip-rule:evenodd;stroke-linejoin:round;stroke-miterlimit:1.41421;">
    <path d="M114.373,500.667C108.774,500.667 103.215,498.921 98.47,495.49C89.632,489.084 85.503,478.074 87.908,467.45L120.782,322.64L9.295,224.868C1.099,217.714 -2.031,206.384 1.333,196.017C4.698,185.67 13.852,178.344 24.691,177.342L172.203,163.95L230.524,27.468C234.824,17.44 244.617,10.964 255.499,10.964C266.38,10.964 276.174,17.44 280.474,27.444L338.795,163.95L486.284,177.342C497.145,178.321 506.3,185.67 509.664,196.017C513.029,206.364 509.918,217.714 501.722,224.868L390.235,322.62L423.109,467.427C425.518,478.074 421.385,489.084 412.551,495.47C403.736,501.856 391.981,502.348 382.698,496.768L255.499,420.755L128.299,496.811C123.999,499.365 119.207,500.667 114.373,500.667ZM255.499,388.01C260.333,388.01 265.121,389.308 269.425,391.862L389.471,463.66L358.444,326.983C356.23,317.256 359.532,307.1 367.049,300.519L472.318,208.197L333.044,195.549C323.017,194.633 314.393,188.329 310.475,179.089L255.499,50.291L200.457,179.108C196.581,188.286 187.957,194.59 177.953,195.506L38.66,208.154L143.925,300.476C151.465,307.076 154.764,317.213 152.53,326.964L121.527,463.637L241.573,391.862C245.873,389.308 250.664,388.01 255.499,388.01ZM171.076,166.59C171.076,166.59 171.076,166.613 171.052,166.633L171.076,166.59ZM339.879,166.527L339.902,166.57C339.902,166.547 339.902,166.547 339.879,166.527Z" style="fill:rgb(140,140,140);fill-rule:nonzero;"/>
</svg>
